X: 1
T: the Banks of Allen
Z: John Chambers <jc:trillian.mit.edu>
R: jig
N: Carlin #530
M: 6/8
L: 1/8
K: D
|: DE | "D"F>GF FED | F>AA A2d | "G"B>dd "D"Add | "G"Bdd "A7"ADE | "D"F>GF FED |
| F>AA A2d | "G"B>dB "D"AFD | "Em"F>EE "A7"E :: de | "D"f>gf fed | f>aa "(A7)"a3 |
| "D"f>gf fed | "G"g>bb b3 | "D"f>ga "A"efg | "Bm"def fed | "G"B>dB "D"AFD | "Em"F>EE "A7"E :|
